kiosk-igrinskij/images/80f6a45948d547a7687aa8a5d9054b09.svg

<svg fill="none" height="18" viewBox="0 0 13 18" width="13" xmlns="http://www.w3.org/2000/svg"><g fill="#f1e9dd"><path d="m12.7058 11.1217c0-3.87054-.9715-7.04259-1.5882-8.61673l-2.1176 2.5825-2.32802.81897-1.04015 2.79657h4.03434v1.03297h-4.47056l-.01911 8.23102c.21476.0115.43288.0205.65295.0261l.00222.0069h.52132c2.39529 0 4.74541-.4477 4.84431-.4667l.7159-.138-1.2918-5.5933h2.0845z"/><path d="m4.55257 8.70298 1.16462-2.79654-2.5034-.82784-1.77083-2.27541c-.616698 1.57414-1.44296 4.44797-1.44296 8.31851v.6803h2.08451l-1.291711 5.5933.715911.138c.06131.0118 1.50709.3342 2.77424.4667v-8.26406h-1.20498v-1.03296z"/><path d="m8.09896 0h-3.40826l-.45541.438922 2.15954 4.162388 2.15958-4.162388z"/><path d="m3.21379.998912-1.43568.691798 1.92777 2.83051 2.12357.55738z"/><path d="m9.49215.998912-2.82017 4.129448 1.84055-.60714 2.41527-2.83051z"/></g></svg>

<svg width="13" height="18" viewBox="0 0 13 18" fill="none" xmlns="http://www.w3.org/2000/svg">
<path d="M12.7058 11.1217C12.7058 7.25116 11.7343 4.07911 11.1176 2.50497L9 5.08747L6.67198 5.90644L5.63183 8.70301H9.66617V9.73598H5.19561L5.1765 17.967C5.39126 17.9785 5.60938 17.9875 5.82945 17.9931L5.83167 18H6.35299C8.74828 18 11.0984 17.5523 11.1973 17.5333L11.9132 17.3953L10.6214 11.802H12.7059L12.7058 11.1217Z" fill="#F1E9DD"/>
<path d="M4.55257 8.70298L5.71719 5.90644L3.21379 5.0786L1.44296 2.80319C0.826262 4.37733 0 7.25116 0 11.1217V11.802H2.08451L0.792799 17.3953L1.50871 17.5333C1.57002 17.5451 3.0158 17.8675 4.28295 18V9.73594H3.07797V8.70298H4.55257Z" fill="#F1E9DD"/>
<path d="M8.09896 0H4.6907L4.23529 0.438922L6.39483 4.60131L8.55441 0.438922L8.09896 0Z" fill="#F1E9DD"/>
<path d="M3.21379 0.998912L1.77811 1.69071L3.70588 4.52122L5.82945 5.0786L3.21379 0.998912Z" fill="#F1E9DD"/>
<path d="M9.49215 0.998912L6.67198 5.12836L8.51253 4.52122L10.9278 1.69071L9.49215 0.998912Z" fill="#F1E9DD"/>
</svg>
